X:803
T:Musique pour le Lour.
T:(music for the lur)
F:https://www.vwml.org/record/Malchair/3619/p80
F:www.vwml.org/topics/historic-dance-and-tune-books/Malchair
Z:Eric Conrad Mar 2020
W:fort a[n]cien instrument \`a vent, espece de l'or.
W:(powerful old wind instrument, a sort of treasure)
M:2/4
L:1/16
%%MIDI program 68 % oboe (MIDI's take on a powerful woodwind - does this resemble the sound of the lur?)
K:Gm
d3c B2G2 | A4 B2G2 | (d3c) B2G2 | A4 B2G2 | \
d3c G2B2 | A2B2 d4 | c3d/c/ B2G2 | A2B2 d4 | \
c3d/c/ B2G2 | ABcA B2G2 | c3d/c/ B2G2 | ABcA B2G2 | \
c3d/c/ B2d2 | A4 A2B2 | G4 G4 |]

